icons/modern/cut-of-meat.svg

<svg width="32" height="32" viewBox="0 0 32 32" fill="none" xmlns="http://www.w3.org/2000/svg">
<path d="M26.2425 20.155C26.3525 18.885 26.9125 17.685 27.8125 16.775L27.9925 16.595C30.6525 13.935 30.6525 9.59497 27.9925 6.93497L24.8425 3.78497L21.4125 7.21497C20.8325 7.52497 20.2925 7.91497 19.8125 8.40497L19.6325 8.58497C18.7325 9.48497 17.5225 10.045 16.2525 10.155C13.7125 10.375 11.3225 11.485 9.52252 13.285C7.11252 15.695 6.10252 18.995 6.49252 22.145L4.89252 23.735L8.04252 26.885C12.1925 31.035 18.9525 31.035 23.1125 26.885C24.9125 25.085 26.0225 22.695 26.2425 20.155Z" fill="url(#paint0_linear_18_31307)"/>
<path d="M23.7725 12.735L23.9525 12.555C26.0125 10.495 26.0125 7.155 23.9525 5.105C21.8925 3.045 18.5525 3.045 16.5025 5.105L16.3225 5.285C15.1525 6.455 13.6125 7.165 11.9725 7.305C9.79249 7.495 7.75249 8.445 6.21249 9.985C2.66249 13.535 2.66249 19.295 6.21249 22.845C9.76249 26.395 15.5225 26.395 19.0725 22.845C20.6125 21.305 21.5625 19.265 21.7525 17.085C21.8925 15.445 22.6125 13.905 23.7725 12.735Z" fill="url(#paint1_linear_18_31307)"/>
<path d="M23.3025 17.215C23.4125 15.945 23.9725 14.745 24.8725 13.835L25.0525 13.655C27.7125 10.995 27.7125 6.655 25.0525 3.995C22.3925 1.335 18.0525 1.335 15.3925 3.995L15.2125 4.175C14.3125 5.075 13.1025 5.635 11.8325 5.745C9.3025 5.975 6.9125 7.085 5.1125 8.885C0.9625 13.035 0.9625 19.795 5.1125 23.955C9.2625 28.115 16.0225 28.105 20.1825 23.955C21.9725 22.145 23.0925 19.755 23.3025 17.215ZM11.9725 7.305C13.6125 7.165 15.1525 6.445 16.3225 5.285L16.4425 5.165C18.4825 3.125 21.8125 3.035 23.8925 5.045C26.0125 7.095 26.0325 10.485 23.9525 12.565L23.7725 12.745C22.6025 13.915 21.8925 15.455 21.7525 17.095C21.6225 18.585 21.1425 20.005 20.3625 21.245C19.8825 22.015 18.7425 21.945 18.3525 21.125L16.0125 16.215C16.0125 16.205 16.0025 16.205 16.0025 16.195C15.5425 15.225 15.7125 14.075 16.4725 13.315L17.2025 12.585C17.6725 12.115 18.3625 11.935 19.0025 12.135C20.1225 12.475 21.4025 12.165 22.2525 11.205C23.2825 10.035 23.2825 8.255 22.2525 7.095C21.0525 5.725 18.9625 5.675 17.7025 6.945C16.8625 7.785 16.6025 8.995 16.9225 10.065C17.1125 10.695 16.9325 11.385 16.4625 11.855L15.7225 12.595C14.9625 13.355 13.8225 13.525 12.8525 13.075C12.8425 13.075 12.8325 13.065 12.8225 13.065L7.9025 10.735C7.0825 10.355 7.0125 9.215 7.7725 8.725C9.0325 7.925 10.4725 7.435 11.9725 7.305ZM6.2125 22.845C3.1625 19.795 2.7325 15.115 4.9225 11.605C5.2325 11.105 5.8625 10.925 6.3925 11.165L12.4025 13.985C13.5725 14.535 14.5225 15.485 15.0825 16.645L17.9325 22.625C18.1825 23.155 17.9925 23.785 17.5025 24.095C13.9825 26.335 9.2725 25.915 6.2125 22.845Z" fill="url(#paint2_linear_18_31307)"/>
<path d="M11.9725 7.30498C13.6125 7.16498 15.1525 6.44498 16.3225 5.28498L16.4425 5.16498C18.4825 3.12498 21.8125 3.03498 23.8925 5.04498C26.0125 7.09498 26.0325 10.485 23.9525 12.565L23.7725 12.745C22.6025 13.915 21.8925 15.455 21.7525 17.095C21.6225 18.585 21.1425 20.005 20.3625 21.245C19.8825 22.015 18.7425 21.945 18.3525 21.125L16.0125 16.215C16.0125 16.205 16.0025 16.205 16.0025 16.195C15.5425 15.225 15.7125 14.075 16.4725 13.315L17.2025 12.585C17.6725 12.115 18.3625 11.935 19.0025 12.135C20.1225 12.475 21.4025 12.165 22.2525 11.205C23.2825 10.035 23.2825 8.25498 22.2525 7.09498C21.0525 5.72498 18.9625 5.67498 17.7025 6.94498C16.8625 7.78498 16.6025 8.99498 16.9225 10.065C17.1125 10.695 16.9325 11.385 16.4625 11.855L15.7225 12.595C14.9625 13.355 13.8225 13.525 12.8525 13.075C12.8425 13.075 12.8325 13.065 12.8225 13.065L7.90249 10.735C7.08249 10.355 7.01249 9.21498 7.77249 8.72498C9.03249 7.92498 10.4725 7.43498 11.9725 7.30498ZM6.21249 22.845C3.16249 19.795 2.73249 15.115 4.92249 11.605C5.23249 11.105 5.86249 10.925 6.39249 11.165L12.4025 13.985C13.5725 14.535 14.5225 15.485 15.0825 16.645L17.9325 22.625C18.1825 23.155 17.9925 23.785 17.5025 24.095C13.9825 26.335 9.27249 25.915 6.21249 22.845Z" fill="url(#paint3_linear_18_31307)"/>
<path d="M18.6625 10.305C17.9925 9.63501 17.9925 8.55501 18.6625 7.88501C19.3325 7.21501 20.4225 7.21501 21.0925 7.88501C21.7625 8.55501 21.7625 9.64501 21.0925 10.315C20.4225 10.975 19.3325 10.975 18.6625 10.305Z" fill="url(#paint4_radial_18_31307)"/>
<defs>
<linearGradient id="paint0_linear_18_31307" x1="8.375" y1="27.375" x2="28.625" y2="7.25" gradientUnits="userSpaceOnUse">
<stop stop-color="#A45E96"/>
<stop offset="0.216716" stop-color="#CF8FA4"/>
<stop offset="0.383763" stop-color="#F8B2B4"/>
<stop offset="0.509288" stop-color="#FFBAB8"/>
<stop offset="0.670267" stop-color="#FFD4C8"/>
<stop offset="0.746113" stop-color="#FEB8B3"/>
<stop offset="1" stop-color="#FFE4D1"/>
</linearGradient>
<linearGradient id="paint1_linear_18_31307" x1="8.65482" y1="7.52821" x2="21.5173" y2="20.3907" gradientUnits="userSpaceOnUse">
<stop stop-color="#ED1C26"/>
<stop offset="0.456" stop-color="#ED1452"/>
<stop offset="1" stop-color="#EC098C"/>
</linearGradient>
<linearGradient id="paint2_linear_18_31307" x1="7.55296" y1="6.42634" x2="22.6192" y2="21.4926" gradientUnits="userSpaceOnUse">
<stop offset="0.00558659" stop-color="#FDEADB"/>
<stop offset="1" stop-color="#FFDEC2"/>
</linearGradient>
<linearGradient id="paint3_linear_18_31307" x1="4.875" y1="11.875" x2="22.375" y2="19.25" gradientUnits="userSpaceOnUse">
<stop stop-color="#C83C62"/>
<stop offset="1" stop-color="#E94751"/>
</linearGradient>
<radialGradient id="paint4_radial_18_31307" cx="0" cy="0" r="1" gradientUnits="userSpaceOnUse" gradientTransform="translate(18.16 9.3125) rotate(100.233) scale(6.00172 2.39596)">
<stop offset="0.0955533" stop-color="#FFC6BA"/>
<stop offset="0.534505" stop-color="#C57C86"/>
<stop offset="0.868481" stop-color="#9D504A"/>
</radialGradient>
</defs>
</svg>

<svg width="32" height="32" fill="none" xmlns="http://www.w3.org/2000/svg"><path d="M26.242 20.155c.11-1.27.67-2.47 1.57-3.38l.18-.18c2.66-2.66 2.66-7 0-9.66l-3.15-3.15-3.43 3.43c-.58.31-1.12.7-1.6 1.19l-.18.18c-.9.9-2.11 1.46-3.38 1.57-2.54.22-4.93 1.33-6.73 3.13-2.41 2.41-3.42 5.71-3.03 8.86l-1.6 1.59 3.15 3.15c4.15 4.15 10.91 4.15 15.07 0 1.8-1.8 2.91-4.19 3.13-6.73Z" fill="url(#a)"/><path d="m23.773 12.735.18-.18c2.06-2.06 2.06-5.4 0-7.45-2.06-2.06-5.4-2.06-7.45 0l-.18.18a6.985 6.985 0 0 1-4.35 2.02 9.285 9.285 0 0 0-5.76 2.68c-3.55 3.55-3.55 9.31 0 12.86 3.55 3.55 9.31 3.55 12.86 0a9.285 9.285 0 0 0 2.68-5.76c.14-1.64.86-3.18 2.02-4.35Z" fill="url(#b)"/><path d="M23.302 17.215c.11-1.27.67-2.47 1.57-3.38l.18-.18c2.66-2.66 2.66-7 0-9.66s-7-2.66-9.66 0l-.18.18c-.9.9-2.11 1.46-3.38 1.57-2.53.23-4.92 1.34-6.72 3.14-4.15 4.15-4.15 10.91 0 15.07s10.91 4.15 15.07 0a10.89 10.89 0 0 0 3.12-6.74Zm-11.33-9.91c1.64-.14 3.18-.86 4.35-2.02l.12-.12c2.04-2.04 5.37-2.13 7.45-.12a5.276 5.276 0 0 1 .06 7.52l-.18.18a6.985 6.985 0 0 0-2.02 4.35 9.307 9.307 0 0 1-1.39 4.15c-.48.77-1.62.7-2.01-.12l-2.34-4.91c0-.01-.01-.01-.01-.02-.46-.97-.29-2.12.47-2.88l.73-.73a1.79 1.79 0 0 1 1.8-.45c1.12.34 2.4.03 3.25-.93 1.03-1.17 1.03-2.95 0-4.11a3.111 3.111 0 0 0-4.55-.15 3.14 3.14 0 0 0-.78 3.12c.19.63.01 1.32-.46 1.79l-.74.74c-.76.76-1.9.93-2.87.48-.01 0-.02-.01-.03-.01l-4.92-2.33c-.82-.38-.89-1.52-.13-2.01 1.26-.8 2.7-1.29 4.2-1.42Zm-5.76 15.54c-3.05-3.05-3.48-7.73-1.29-11.24.31-.5.94-.68 1.47-.44l6.01 2.82c1.17.55 2.12 1.5 2.68 2.66l2.85 5.98c.25.53.06 1.16-.43 1.47-3.52 2.24-8.23 1.82-11.29-1.25Z" fill="url(#c)"/><path d="M11.973 7.305c1.64-.14 3.18-.86 4.35-2.02l.12-.12c2.04-2.04 5.37-2.13 7.45-.12a5.276 5.276 0 0 1 .06 7.52l-.18.18a6.985 6.985 0 0 0-2.02 4.35 9.307 9.307 0 0 1-1.39 4.15c-.48.77-1.62.7-2.01-.12l-2.34-4.91c0-.01-.01-.01-.01-.02-.46-.97-.29-2.12.47-2.88l.73-.73a1.79 1.79 0 0 1 1.8-.45c1.12.34 2.4.03 3.25-.93 1.03-1.17 1.03-2.95 0-4.11a3.111 3.111 0 0 0-4.55-.15 3.14 3.14 0 0 0-.78 3.12c.19.63.01 1.32-.46 1.79l-.74.74c-.76.76-1.9.93-2.87.48-.01 0-.02-.01-.03-.01l-4.92-2.33c-.82-.38-.89-1.52-.13-2.01 1.26-.8 2.7-1.29 4.2-1.42Zm-5.76 15.54c-3.05-3.05-3.48-7.73-1.29-11.24.31-.5.94-.68 1.47-.44l6.01 2.82c1.17.55 2.12 1.5 2.68 2.66l2.85 5.98c.25.53.06 1.16-.43 1.47-3.52 2.24-8.23 1.82-11.29-1.25Z" fill="url(#d)"/><path d="M18.663 10.305c-.67-.67-.67-1.75 0-2.42a1.72 1.72 0 0 1 2.43 0c.67.67.67 1.76 0 2.43-.67.66-1.76.66-2.43-.01Z" fill="url(#e)"/><defs><linearGradient id="a" x1="8.375" y1="27.375" x2="28.625" y2="7.25" gradientUnits="userSpaceOnUse"><stop stop-color="#A45E96"/><stop offset=".217" stop-color="#CF8FA4"/><stop offset=".384" stop-color="#F8B2B4"/><stop offset=".509" stop-color="#FFBAB8"/><stop offset=".67" stop-color="#FFD4C8"/><stop offset=".746" stop-color="#FEB8B3"/><stop offset="1" stop-color="#FFE4D1"/></linearGradient><linearGradient id="b" x1="8.655" y1="7.528" x2="21.517" y2="20.391" gradientUnits="userSpaceOnUse"><stop stop-color="#ED1C26"/><stop offset=".456" stop-color="#ED1452"/><stop offset="1" stop-color="#EC098C"/></linearGradient><linearGradient id="c" x1="7.553" y1="6.426" x2="22.619" y2="21.493" gradientUnits="userSpaceOnUse"><stop offset=".006" stop-color="#FDEADB"/><stop offset="1" stop-color="#FFDEC2"/></linearGradient><linearGradient id="d" x1="4.875" y1="11.875" x2="22.375" y2="19.25" gradientUnits="userSpaceOnUse"><stop stop-color="#C83C62"/><stop offset="1" stop-color="#E94751"/></linearGradient><radialGradient id="e" cx="0" cy="0" r="1" gradientUnits="userSpaceOnUse" gradientTransform="rotate(100.233 5.189 12.244) scale(6.00172 2.39596)"><stop offset=".096" stop-color="#FFC6BA"/><stop offset=".535" stop-color="#C57C86"/><stop offset=".868" stop-color="#9D504A"/></radialGradient></defs></svg>
